icons/svg/notes_26.svg

<svg width="26" height="26" viewBox="0 0 26 26" xmlns="http://www.w3.org/2000/svg"><title>activities/notes_26</title><path d="M20.333 1.0001c1.471 0 2.667 1.196 2.667 2.667l0 18.666c0 1.471-1.196 2.667-2.667 2.667l-14.667 0c-1.47 0-2.666-1.196-2.666-2.667l0-18.666c0-1.471 1.196-2.667 2.666-2.667l14.667 0zM22 22.3331l0-18.666c0-.919-.748-1.667-1.667-1.667l-14.667 0c-.919 0-1.666.748-1.666 1.667l0 18.666c0 .919.747 1.667 1.666 1.667l14.667 0c.919 0 1.667-.748 1.667-1.667zm-9.5-4.3321c.276 0 .5.224.5.5 0 .276-.224.5-.5.5l-4 0c-.277 0-.5-.224-.5-.5 0-.276.223-.5.5-.5l4 0zm5-11.0009c.275 0 .5.224.5.5 0 .276-.225.5-.5.5l-9 0c-.276 0-.5-.224-.5-.5 0-.276.224-.5.5-.5l9 0zm-.001 5.5c.275 0 .5.224.5.5 0 .276-.225.5-.5.5l-8.999 0c-.276 0-.5-.224-.5-.5 0-.276.224-.5.5-.5l8.999 0z" fill="#000" fill-rule="evenodd"/></svg>

<svg width="26" height="26" viewBox="0 0 26 26" xmlns="http://www.w3.org/2000/svg"><title>activities/notes_26</title><path d="M20.333 1C21.804 1 23 2.196 23 3.667l0 18.666C23 23.804 21.804 25 20.333 25L5.666 25C4.196 25 3 23.804 3 22.333L3 3.667C3 2.196 4.196 1 5.666 1l14.667 0zM22 22.333l0-18.666C22 2.748 21.252 2 20.333 2L5.666 2C4.747 2 4 2.748 4 3.667l0 18.666C4 23.252 4.747 24 5.666 24l14.667 0c.919 0 1.667-.748 1.667-1.667zM17.4996 7c.276 0 .5.224.5.5 0 .276-.224.5-.5.5l-9 0c-.276 0-.5-.224-.5-.5 0-.276.224-.5.5-.5l9 0zm-.001 5c.276 0 .5.224.5.5 0 .276-.224.5-.5.5l-8.999 0c-.276 0-.5-.224-.5-.5 0-.276.224-.5.5-.5l8.999 0zm-5.2212 5c.276 0 .5.224.5.5 0 .276-.224.5-.5.5l-3.611 0c-.277 0-.5-.224-.5-.5 0-.276.223-.5.5-.5l3.611 0z" fill="#000" fill-rule="evenodd"/></svg>
